flaticon/weather/raindrops.svg

<svg xmlns="http://www.w3.org/2000/svg" width="32" height="32" viewBox="0 0 24 24">
    <path d="M11.765625 14.328125C13.042969 13.054688 13.746094 11.355469 13.746094 9.554688 13.746094 7.75 13.042969 6.050781 11.765625 4.777344L6.988281 0 2.214844 4.777344C.9375 6.050781.234375 7.75.234375 9.554688.234375 11.355469.9375 13.054688 2.214844 14.328125 2.269531 14.386719 2.328125 14.433594 2.386719 14.488281 2.542969 14.648438 2.714844 14.796875 2.902344 14.921875 4.070312 15.816406 5.492188 16.308594 6.988281 16.308594 8.792969 16.308594 10.488281 15.605469 11.765625 14.328125zM2.828125 5.394531L6.988281 1.234375 11.148438 5.394531C12.261719 6.503906 12.871094 7.980469 12.871094 9.554688 12.871094 11.125 12.261719 12.601562 11.148438 13.714844 10.039062 14.824219 8.5625 15.4375 6.988281 15.4375 6.511719 15.4375 6.046875 15.375 5.59375 15.261719 6.785156 14.847656 7.644531 13.714844 7.644531 12.386719 7.644531 10.703125 6.273438 9.335938 4.59375 9.335938 3.082031 9.335938 1.828125 10.4375 1.585938 11.882812 1.273438 11.15625 1.105469 10.367188 1.105469 9.554688 1.105469 7.980469 1.71875 6.503906 2.828125 5.394531zM3.347656 14.167969C3.285156 14.125 3.234375 14.078125 3.175781 14.027344 3.121094 13.980469 3.070312 13.933594 3.019531 13.886719 2.644531 13.492188 2.414062 12.96875 2.414062 12.386719 2.414062 11.183594 3.390625 10.207031 4.59375 10.207031 5.792969 10.207031 6.769531 11.183594 6.769531 12.386719 6.769531 13.585938 5.792969 14.566406 4.59375 14.566406 4.148438 14.566406 3.730469 14.429688 3.386719 14.199219 3.375 14.1875 3.359375 14.179688 3.347656 14.167969zM22.617188 10.917969L19.84375 8.144531 17.070312 10.917969C15.542969 12.445312 15.542969 14.933594 17.070312 16.464844 17.835938 17.230469 18.839844 17.609375 19.84375 17.609375 20.847656 17.609375 21.855469 17.230469 22.617188 16.464844 24.148438 14.933594 24.148438 12.445312 22.617188 10.917969zM22.003906 15.847656C20.8125 17.035156 18.878906 17.035156 17.6875 15.847656 16.5 14.65625 16.5 12.722656 17.6875 11.53125L19.84375 9.375 22.003906 11.53125C23.191406 12.722656 23.191406 14.65625 22.003906 15.847656zM12.871094 18.738281L11.332031 20.28125C10.484375 21.128906 10.484375 22.511719 11.332031 23.363281 11.742188 23.773438 12.289062 24 12.871094 24 13.453125 24 14 23.773438 14.414062 23.363281 15.261719 22.511719 15.261719 21.128906 14.414062 20.28125zM13.796875 22.746094C13.304688 23.238281 12.441406 23.238281 11.949219 22.746094 11.4375 22.234375 11.4375 21.40625 11.949219 20.894531L12.871094 19.972656 13.796875 20.894531C14.308594 21.40625 14.308594 22.234375 13.796875 22.746094zM13.796875 22.746094"/>
</svg>

<svg xmlns="http://www.w3.org/2000/svg" width="32" height="32" viewBox="0 0 24 24">
    <path d="M11.766 14.328a6.701 6.701 0 0 0 1.98-4.773 6.704 6.704 0 0 0-1.98-4.778L6.988 0 2.215 4.777a6.704 6.704 0 0 0-1.98 4.778c0 1.8.703 3.5 1.98 4.773.055.059.113.106.172.16.156.16.328.309.515.434a6.694 6.694 0 0 0 4.086 1.387 6.71 6.71 0 0 0 4.778-1.98zM2.828 5.395l4.16-4.16 4.16 4.16a5.828 5.828 0 0 1 1.723 4.16c0 1.57-.61 3.047-1.723 4.16a5.844 5.844 0 0 1-4.16 1.723c-.476 0-.941-.063-1.394-.176a3.051 3.051 0 0 0 2.05-2.875 3.055 3.055 0 0 0-3.05-3.051 3.053 3.053 0 0 0-3.008 2.547 5.885 5.885 0 0 1-.48-2.328c0-1.575.613-3.051 1.722-4.16zm.52 8.773c-.063-.043-.114-.09-.172-.14a5.637 5.637 0 0 1-.156-.141 2.165 2.165 0 0 1-.606-1.5 2.18 2.18 0 0 1 2.18-2.18 2.18 2.18 0 0 1 0 4.36c-.446 0-.864-.137-1.207-.368-.012-.011-.028-.02-.04-.031zm0 0M22.617 10.918l-2.773-2.773-2.774 2.773a3.93 3.93 0 0 0 0 5.547 3.906 3.906 0 0 0 2.774 1.144 3.9 3.9 0 0 0 2.773-1.144 3.923 3.923 0 0 0 0-5.547zm-.613 4.93a3.06 3.06 0 0 1-4.317 0 3.06 3.06 0 0 1 0-4.317l2.157-2.156 2.16 2.156a3.06 3.06 0 0 1 0 4.317zm0 0M12.871 18.738l-1.539 1.543a2.186 2.186 0 0 0 0 3.082c.41.41.957.637 1.54.637.581 0 1.128-.227 1.542-.637a2.186 2.186 0 0 0 0-3.082zm.926 4.008c-.492.492-1.356.492-1.848 0a1.308 1.308 0 0 1 0-1.851l.922-.922.926.922c.512.511.512 1.34 0 1.851zm0 0"/>
</svg>
